!!!COM: dire-straits
!!!OTL: money-for-nothing
!!!RNB: hooktheoryid: NlamkypexDM
**kern	**text
*clefG2	*
*k[b-e-]	*
*M4/4	*
=1	=1
8r	Eb
8ee-	.
8ee-	.
8ee-	.
4ee-	.
4dd	.
=2	=2
8ee-	Bb
8dd	.
4ff	.
8cc	.
4.b-	.
=3	=3
4r	Eb
8ee-	.
8ee-	.
8ee-	.
4ee-	.
8dd	.
=4	=4
8ee-	F
8dd	.
8ee-	.
8dd	.
8ee-	.
8dd	.
4ff	.
=5	=5
8r	Gmin7
8gg	.
8ff	.
8dd	.
4ff	.
4ff	.
=6	=6
8r	.
8ff	.
8ff	.
8dd	.
8ff	.
4.ff	.
=7	=7
8r	C
8cc	.
8cc	.
8cc	.
4cc	.
4cc	.
=8	=8
8dd	D
8dd	.
4dd	.
4.dd	.
16dd	.
16ee-	.
=9	=9
1r	.
*-	*-